polaris-icons/icons/newicons/HideMinor.svg

<svg width="20" height="20" viewBox="0 0 20 20" fill="none" xmlns="http://www.w3.org/2000/svg">
<path fill-rule="evenodd" clip-rule="evenodd" d="M3.59097 15.2583L15.2582 3.59099C15.2608 3.58841 15.2634 3.58581 15.2659 3.58321C15.5594 3.29789 16.0286 3.30041 16.3189 3.59076C16.6118 3.88366 16.6118 4.35853 16.3189 4.65142L14.9597 6.01059C16.8117 7.52086 18 9.4239 18 9.99989C18 10.9999 14.4183 15.9999 10 15.9999C8.61274 15.9999 7.30796 15.507 6.17062 14.7997L4.65164 16.3187C4.35875 16.6116 3.88388 16.6116 3.59098 16.3187C3.30067 16.0284 3.29811 15.5593 3.5833 15.2658C3.58587 15.2633 3.58843 15.2608 3.59097 15.2583ZM13.893 7.07735L12.5506 8.41973C12.8355 8.87861 13 9.42003 13 9.99989C13 11.6567 11.6569 12.9999 10 12.9999C9.42015 12.9999 8.87872 12.8354 8.41984 12.5505L7.26505 13.7053C8.13624 14.1958 9.06668 14.4999 10 14.4999C11.6552 14.4999 13.3012 13.5434 14.6239 12.2873C15.267 11.6764 15.78 11.0439 16.1219 10.5292C16.2638 10.3156 16.3668 10.1365 16.4353 9.99989C16.3668 9.86329 16.2638 9.68415 16.1219 9.47053C15.78 8.9559 15.267 8.32339 14.6239 7.71251C14.3898 7.49019 14.1456 7.27726 13.893 7.07735ZM11.4287 9.54162L9.54173 11.4286C9.68619 11.4749 9.84017 11.4999 10 11.4999C10.8284 11.4999 11.5 10.8283 11.5 9.99989C11.5 9.84006 11.475 9.68607 11.4287 9.54162ZM16.522 9.80122L16.5225 9.79961C16.5225 9.79961 16.5218 9.80112 16.5207 9.8056L16.522 9.80122Z" fill="black"/>
<path d="M3.84887 12.879C2.69441 11.656 2 10.4402 2 9.99989C2 8.99989 5.58172 3.99989 10 3.99989C10.7969 3.99989 11.5665 4.16253 12.2929 4.43502L11.0945 5.63339C10.7324 5.54676 10.3664 5.49989 10 5.49989C8.34484 5.49989 6.69875 6.45633 5.37614 7.71251C4.73295 8.32339 4.21999 8.9559 3.8781 9.47053C3.73619 9.68415 3.6332 9.86329 3.56466 9.99989C3.6332 10.1365 3.73619 10.3156 3.8781 10.5292C4.13278 10.9126 4.48238 11.3614 4.91003 11.8179L3.84887 12.879Z" fill="black"/>
<path d="M7.0134 9.71451C7.14825 8.28544 8.28556 7.14814 9.71462 7.01328L7.0134 9.71451Z" fill="black"/>
</svg>

<svg viewBox="0 0 20 20" fill="none" xmlns="http://www.w3.org/2000/svg"><path fill-rule="evenodd" clip-rule="evenodd" d="m3.591 15.258 11.667-11.667a.75.75 0 1 1 1.06 1.06l-1.358 1.36c1.852 1.51 3.04 3.413 3.04 3.989 0 1-3.582 6-8 6-1.387 0-2.692-.493-3.83-1.2l-1.518 1.519a.75.75 0 0 1-1.061-1.06Zm10.302-8.18-1.342 1.342a3 3 0 0 1-4.13 4.13l-1.156 1.155c.871.49 1.802.795 2.735.795 1.655 0 3.301-.957 4.624-2.213a10.607 10.607 0 0 0 1.498-1.758 5.19 5.19 0 0 0 .313-.53 5.193 5.193 0 0 0-.313-.528 10.61 10.61 0 0 0-1.498-1.758 10.764 10.764 0 0 0-.731-.636Zm-2.464 2.464-1.887 1.887a1.499 1.499 0 0 0 1.958-1.43c0-.159-.025-.313-.071-.457Zm5.093.26v-.002l-.001.006.001-.005Z" fill="#000"/><path d="M3.849 12.879c-1.155-1.223-1.849-2.439-1.849-2.88 0-1 3.582-6 8-6 .797 0 1.566.164 2.293.436l-1.198 1.198a4.7 4.7 0 0 0-1.095-.133c-1.655 0-3.301.956-4.624 2.213a10.605 10.605 0 0 0-1.498 1.758 5.2 5.2 0 0 0-.313.529c.068.136.171.316.313.53.255.383.604.831 1.032 1.288l-1.061 1.061Z" fill="#000"/><path d="M7.013 9.715a3 3 0 0 1 2.702-2.702l-2.702 2.702Z" fill="#000"/></svg>
